humanity-icon-theme/Humanity-Dark/apps/22/nm-stage03-connecting02.svg

<?xml version="1.0" encoding="UTF-8" standalone="no"?>
<!-- Created with Inkscape (http://www.inkscape.org/) -->

<svg
   xmlns:svg="http://www.w3.org/2000/svg"
   xmlns="http://www.w3.org/2000/svg"
   version="1.0"
   width="22"
   height="22"
   id="svg3315">
  <defs
     id="defs3317" />
  <path
     d="M 9.5033463,14.962874 7.0031199,19.293393"
     id="path3279"
     style="opacity:0.2;fill:none;stroke:#878787;stroke-width:1px;stroke-linecap:round;stroke-linejoin:miter;stroke-opacity:1" />
  <path
     d="M 16.009358,3.6941299 13.508,8.02661"
     id="path3281"
     style="fill:none;stroke:#878787;stroke-width:1px;stroke-linecap:round;stroke-linejoin:miter;stroke-opacity:1" />
  <path
     d="M 10.469466,15.363053 9.1752533,20.19312"
     id="path2629"
     style="opacity:0.175;fill:none;stroke:#878787;stroke-width:1px;stroke-linecap:round;stroke-linejoin:miter;stroke-opacity:1" />
  <path
     d="M 13.837225,2.7944029 12.542426,7.6266567"
     id="path2631"
     style="opacity:0.875;fill:none;stroke:#878787;stroke-width:1px;stroke-linecap:round;stroke-linejoin:miter;stroke-opacity:1" />
  <path
     d="m 11.506239,15.499547 0,5.000453"
     id="path3403"
     style="opacity:0.15;fill:none;stroke:#878787;stroke-width:1px;stroke-linecap:round;stroke-linejoin:miter;stroke-opacity:1" />
  <path
     d="m 11.506239,2.4875227 0,5.0027173"
     id="path3405"
     style="opacity:0.75;fill:none;stroke:#878787;stroke-width:1px;stroke-linecap:round;stroke-linejoin:miter;stroke-opacity:1" />
  <path
     d="m 12.543013,15.363053 1.294211,4.830067"
     id="path3407"
     style="opacity:0.125;fill:none;stroke:#878787;stroke-width:1px;stroke-linecap:round;stroke-linejoin:miter;stroke-opacity:1" />
  <path
     d="m 9.1752533,2.7944028 1.2947977,4.832254"
     id="path3409"
     style="opacity:0.675;fill:none;stroke:#878787;stroke-width:1px;stroke-linecap:round;stroke-linejoin:miter;stroke-opacity:1" />
  <path
     d="m 13.509132,14.962874 2.500226,4.330519"
     id="path3415"
     style="opacity:0.1;fill:none;stroke:#878787;stroke-width:1px;stroke-linecap:round;stroke-linejoin:miter;stroke-opacity:1" />
  <path
     d="M 7.0031198,3.6941298 9.5044783,8.02661"
     id="path3417"
     style="opacity:0.6;fill:none;stroke:#878787;stroke-width:1px;stroke-linecap:round;stroke-linejoin:miter;stroke-opacity:1" />
  <path
     d="m 14.338758,14.326279 3.535854,3.535855"
     id="path3419"
     style="opacity:0.075;fill:none;stroke:#878787;stroke-width:1px;stroke-linecap:round;stroke-linejoin:miter;stroke-opacity:1" />
  <path
     d="M 5.1378668,5.1253889 8.6753226,8.662844"
     id="path3421"
     style="opacity:0.55;fill:none;stroke:#878787;stroke-width:1px;stroke-linecap:round;stroke-linejoin:miter;stroke-opacity:1" />
  <path
     d="m 14.975351,13.496654 4.330518,2.500227"
     id="path3423"
     style="opacity:0.05;fill:none;stroke:#878787;stroke-width:1px;stroke-linecap:round;stroke-linejoin:miter;stroke-opacity:1" />
  <path
     d="M 3.7066071,6.9906426 8.0390875,9.492001"
     id="path3425"
     style="opacity:0.5;fill:none;stroke:#878787;stroke-width:1px;stroke-linecap:round;stroke-linejoin:miter;stroke-opacity:1" />
  <path
     d="m 15.37553,12.530534 4.830067,1.294213"
     id="path3427"
     style="opacity:0.025;fill:none;stroke:#878787;stroke-width:1px;stroke-linecap:round;stroke-linejoin:miter;stroke-opacity:1" />
  <path
     d="m 2.8068806,9.162775 4.8322537,1.294799"
     id="path3429"
     style="opacity:0.45;fill:none;stroke:#878787;stroke-width:1px;stroke-linecap:round;stroke-linejoin:miter;stroke-opacity:1" />
  <path
     d="m 2.5,11.493762 5.0027176,-1e-6"
     id="path3433"
     style="opacity:0.4;fill:none;stroke:#878787;stroke-width:1px;stroke-linecap:round;stroke-linejoin:miter;stroke-opacity:1" />
  <path
     d="M 2.8068813,13.824747 7.6391355,12.529948"
     id="path3437"
     style="opacity:0.35;fill:none;stroke:#878787;stroke-width:0.99999994px;stroke-linecap:round;stroke-linejoin:miter;stroke-opacity:1" />
  <path
     d="M 3.7066072,15.996881 8.039088,13.495522"
     id="path2407"
     style="opacity:0.3;fill:none;stroke:#878787;stroke-width:1px;stroke-linecap:round;stroke-linejoin:miter;stroke-opacity:1" />
  <path
     d="m 5.1378681,17.862134 3.537455,-3.537456"
     id="path2413"
     style="opacity:0.25;fill:none;stroke:#878787;stroke-width:1px;stroke-linecap:round;stroke-linejoin:miter;stroke-opacity:1" />
  <path
     d="M 17.874611,5.1253889 14.337156,8.662845"
     id="path2401"
     style="opacity:0;fill:none;stroke:#878787;stroke-width:1px;stroke-linecap:round;stroke-linejoin:miter;stroke-opacity:1" />
  <path
     d="m 20.205597,9.162775 -4.832254,1.294799"
     id="path2405"
     style="opacity:0;fill:none;stroke:#878787;stroke-width:1px;stroke-linecap:round;stroke-linejoin:miter;stroke-opacity:1" />
  <path
     d="M 19.30587,6.9906419 14.97339,9.492001"
     id="path2410"
     style="opacity:0;fill:none;stroke:#878787;stroke-width:1px;stroke-linecap:round;stroke-linejoin:miter;stroke-opacity:1" />
  <path
     d="m 20.512478,11.493762 -5.002718,0"
     id="path2414"
     style="opacity:0;fill:none;stroke:#878787;stroke-width:1px;stroke-linecap:round;stroke-linejoin:miter;stroke-opacity:1" />
</svg>

<?xml version="1.0" encoding="UTF-8" standalone="no"?>
<!-- Created with Inkscape (http://www.inkscape.org/) -->
<svg id="svg3315" xmlns="http://www.w3.org/2000/svg" height="22" width="22" version="1.0">
 <path id="path3279" style="opacity:.2;stroke:#878787;stroke-linecap:round;stroke-width:1px;fill:none" d="m9.5033 14.963-2.5002 4.33"/>
 <path id="path3281" style="stroke:#878787;stroke-linecap:round;stroke-width:1px;fill:none" d="m16.009 3.6941-2.501 4.3325"/>
 <path id="path2629" style="opacity:.175;stroke:#878787;stroke-linecap:round;stroke-width:1px;fill:none" d="m10.469 15.363-1.2937 4.83"/>
 <path id="path2631" style="opacity:.875;stroke:#878787;stroke-linecap:round;stroke-width:1px;fill:none" d="m13.837 2.7944-1.295 4.8323"/>
 <path id="path3403" style="opacity:.15;stroke:#878787;stroke-linecap:round;stroke-width:1px;fill:none" d="m11.506 15.5v5.0005"/>
 <path id="path3405" style="opacity:.75;stroke:#878787;stroke-linecap:round;stroke-width:1px;fill:none" d="m11.506 2.4875v5.0027"/>
 <path id="path3407" style="opacity:.125;stroke:#878787;stroke-linecap:round;stroke-width:1px;fill:none" d="m12.543 15.363 1.2942 4.8301"/>
 <path id="path3409" style="opacity:.675;stroke:#878787;stroke-linecap:round;stroke-width:1px;fill:none" d="m9.1753 2.7944 1.2948 4.8323"/>
 <path id="path3415" style="opacity:.1;stroke:#878787;stroke-linecap:round;stroke-width:1px;fill:none" d="m13.509 14.963 2.5002 4.3305"/>
 <path id="path3417" style="opacity:.6;stroke:#878787;stroke-linecap:round;stroke-width:1px;fill:none" d="m7.0031 3.6941 2.5014 4.3325"/>
 <path id="path3419" style="opacity:.075;stroke:#878787;stroke-linecap:round;stroke-width:1px;fill:none" d="m14.339 14.326 3.5359 3.5359"/>
 <path id="path3421" style="opacity:.55;stroke:#878787;stroke-linecap:round;stroke-width:1px;fill:none" d="m5.1379 5.1254 3.5374 3.5374"/>
 <path id="path3423" style="opacity:.05;stroke:#878787;stroke-linecap:round;stroke-width:1px;fill:none" d="m14.975 13.497 4.3305 2.5002"/>
 <path id="path3425" style="opacity:.5;stroke:#878787;stroke-linecap:round;stroke-width:1px;fill:none" d="m3.7066 6.9906 4.3325 2.5014"/>
 <path id="path3427" style="opacity:.025;stroke:#878787;stroke-linecap:round;stroke-width:1px;fill:none" d="m15.376 12.531 4.8301 1.2942"/>
 <path id="path3429" style="opacity:.45;stroke:#878787;stroke-linecap:round;stroke-width:1px;fill:none" d="m2.8069 9.1628 4.8323 1.2948"/>
 <path id="path3433" style="opacity:.4;stroke:#878787;stroke-linecap:round;stroke-width:1px;fill:none" d="m2.5 11.494 5.0027-0.000001"/>
 <path id="path3437" style="opacity:.35;stroke:#878787;stroke-linecap:round;stroke-width:1px;fill:none" d="m2.8069 13.825 4.8322-1.295"/>
 <path id="path2407" style="opacity:.3;stroke:#878787;stroke-linecap:round;stroke-width:1px;fill:none" d="m3.7066 15.997 4.3325-2.501"/>
 <path id="path2413" style="opacity:.25;stroke:#878787;stroke-linecap:round;stroke-width:1px;fill:none" d="m5.1379 17.862 3.5375-3.5375"/>
 <path id="path2401" style="opacity:0;stroke-width:1px" d="m17.875 5.1254-3.538 3.5374"/>
 <path id="path2405" style="opacity:0;stroke-width:1px" d="m20.206 9.1628-4.8323 1.2948"/>
 <path id="path2410" style="opacity:0;stroke-width:1px" d="m19.306 6.9906-4.333 2.5014"/>
 <path id="path2414" style="opacity:0;stroke-width:1px" d="m20.512 11.494h-5.0027"/>
</svg>
